dist/images/icons/icon-delivery.svg

<svg width="34" height="34" viewBox="0 0 34 34" fill="none" xmlns="http://www.w3.org/2000/svg">
<path d="M6.51758 24.4988L6.92518 25.4692C7.21268 25.3513 7.5121 25.2641 7.81834 25.2091L7.62835 24.1753C7.24751 24.2438 6.87514 24.3522 6.51758 24.4988V24.4988Z" fill="black"/>
<path d="M3.72681 27.1052L4.68306 27.563C5.014 26.8882 5.51742 26.3106 6.14353 25.8871L5.54388 25.0201C4.76488 25.547 4.13854 26.2657 3.72681 27.1052V27.1052Z" fill="black"/>
<path d="M32.9375 26.8096C32.9381 25.9053 32.6008 25.0326 31.9904 24.3591L31.1987 25.0594C31.5128 25.4058 31.7279 25.8287 31.8219 26.2845H28.1562C28.0688 26.2845 27.9827 26.3058 27.9056 26.3466C27.8285 26.3874 27.7628 26.4464 27.7142 26.5183L25.747 29.435H24.4375V27.8597C24.4386 26.8852 24.8308 25.951 25.5279 25.2619C26.2251 24.5729 27.1703 24.1853 28.1562 24.1841H29.2188C29.7412 24.1833 30.2521 24.3354 30.6871 24.6214L31.2755 23.7469C30.8167 23.4451 30.2955 23.2485 29.75 23.1715V21.5587C29.75 21.4195 29.694 21.2859 29.5944 21.1874C29.4948 21.089 29.3596 21.0337 29.2188 21.0337C28.6554 21.033 28.1152 20.8115 27.7168 20.4178C27.3185 20.024 27.0944 19.4902 27.0938 18.9333V16.833H28.6875C28.8284 16.833 28.9635 16.7777 29.0632 16.6792C29.1628 16.5807 29.2188 16.4472 29.2188 16.3079V12.6323C29.2188 12.4931 29.1628 12.3595 29.0632 12.261C28.9635 12.1626 28.8284 12.1072 28.6875 12.1072H27.7505C27.5285 12.1076 27.3076 12.1377 27.0938 12.1967V11.5822C27.0938 11.4629 27.0527 11.3471 26.9773 11.254L25.2392 9.1064C25.4669 8.72678 25.5488 8.27884 25.4699 7.84446C25.391 7.41007 25.1566 7.01825 24.8095 6.74061C24.4624 6.46297 24.0259 6.31804 23.5796 6.33232C23.1333 6.3466 22.7071 6.51913 22.379 6.81838C22.0508 7.11763 21.8425 7.52362 21.7922 7.96213C21.7419 8.40065 21.853 8.84241 22.105 9.20668C22.3571 9.57095 22.7334 9.83339 23.1651 9.94605C23.5968 10.0587 24.0551 10.0141 24.4563 9.82025L26.0312 11.7663V12.4289L23.6957 11.6594C23.5427 11.6073 23.3819 11.5812 23.2201 11.5822H18.8381L16.316 8.67379C16.527 8.52889 16.6994 8.33568 16.8185 8.11066C16.9377 7.88563 16.9999 7.63546 17 7.3815V7.18092L17.7689 6.80095C17.8362 6.76765 17.8957 6.72057 17.9432 6.66284C17.9908 6.6051 18.0254 6.53803 18.0447 6.46607C18.064 6.39411 18.0677 6.31891 18.0553 6.24546C18.043 6.17201 18.015 6.10199 17.9733 6.04004L17.1007 4.74637C17.2218 4.72326 17.3311 4.65918 17.4096 4.56514C17.4882 4.4711 17.5312 4.35296 17.5312 4.231C17.5303 3.39573 17.1941 2.59495 16.5966 2.00432C15.999 1.41369 15.1888 1.08146 14.3438 1.08051C13.3433 1.08051 12.417 1.36451 11.728 2.11702C11.4295 2.44357 11.2034 2.82822 11.0641 3.24627C10.9249 3.66431 10.8757 4.10652 10.9196 4.54448L11.0333 5.66763C11.0812 6.15189 11.3153 6.5995 11.6875 6.91798V16.833C11.6872 17.2019 11.7859 17.5642 11.9734 17.8832H11.1562C10.9753 17.8831 10.7956 17.9136 10.625 17.9735V11.0571C10.6245 10.6394 10.4565 10.239 10.1577 9.94373C9.85889 9.64841 9.45379 9.4823 9.03125 9.48183H2.65625C2.23371 9.4823 1.82861 9.64841 1.52982 9.94373C1.23104 10.239 1.06297 10.6394 1.0625 11.0571V13.6825H2.125V12.6323H9.5625V17.8832H2.125V14.7327H1.0625V19.0202C1.06238 19.2661 1.14967 19.5043 1.30913 19.6932C1.46858 19.882 1.69008 20.0095 1.93495 20.0534L6.90625 20.9468V22.179C6.45584 22.2821 6.01601 22.426 5.59234 22.6089H2.65625C2.51535 22.6089 2.38023 22.6642 2.2806 22.7627C2.18097 22.8612 2.125 22.9947 2.125 23.134V25.6263C1.43087 26.7784 1.06382 28.0941 1.0625 29.435C1.0625 29.5742 1.11847 29.7078 1.2181 29.8063C1.31773 29.9047 1.45285 29.9601 1.59375 29.9601H4.02893C4.34641 30.7357 4.89103 31.4 5.59297 31.8677C6.29491 32.3355 7.12219 32.5854 7.96875 32.5854C8.81531 32.5854 9.64259 32.3355 10.3445 31.8677C11.0465 31.4 11.5911 30.7357 11.9086 29.9601H20.8409C21.211 29.9599 21.577 29.8833 21.9154 29.7354C22.2539 29.5875 22.5574 29.3714 22.8066 29.1009L23.375 28.4827V29.9601C23.375 30.0993 23.431 30.2329 23.5306 30.3313C23.6302 30.4298 23.7654 30.4851 23.9062 30.4851H25.007C25.4748 31.2859 26.1969 31.9117 27.0612 32.2656C27.9255 32.6194 28.8838 32.6815 29.7875 32.4421C30.6912 32.2028 31.4897 31.6755 32.0592 30.9419C32.6287 30.2083 32.9375 29.3095 32.9375 28.3848C32.9379 27.9826 32.8796 27.5825 32.7644 27.1968C32.819 27.1477 32.8626 27.0879 32.8924 27.0213C32.9222 26.9546 32.9375 26.8825 32.9375 26.8096ZM22.8438 8.16912C22.8438 8.01335 22.8905 7.86107 22.978 7.73154C23.0656 7.60202 23.1901 7.50107 23.3357 7.44145C23.4813 7.38184 23.6415 7.36624 23.7961 7.39663C23.9507 7.42702 24.0927 7.50204 24.2041 7.61219C24.3155 7.72234 24.3914 7.86268 24.4222 8.01546C24.4529 8.16825 24.4372 8.32661 24.3768 8.47053C24.3165 8.61445 24.2144 8.73746 24.0833 8.82401C23.9523 8.91055 23.7982 8.95675 23.6406 8.95675C23.4294 8.95652 23.2268 8.87347 23.0774 8.72581C22.928 8.57815 22.844 8.37794 22.8438 8.16912V8.16912ZM15.2436 26.8096C14.7233 26.809 14.2245 26.6044 13.8566 26.2408C13.4888 25.8772 13.2818 25.3842 13.2812 24.87C13.2813 24.3545 13.4131 23.8723 13.7607 23.4757C14.0705 23.1231 14.4982 22.8925 14.9658 22.8259C15.5302 22.7463 16.0467 22.4681 16.4204 22.0424C16.794 21.6167 16.9998 21.0721 17 20.5086C17.0001 20.4396 16.9864 20.3712 16.9597 20.3075C16.9329 20.2437 16.8937 20.1858 16.8443 20.1371C16.9346 19.9505 16.9867 19.7481 16.9978 19.5416C17.0088 19.335 16.9785 19.1283 16.9086 18.9333H18.3515L16.0202 24.9241C15.9639 25.0684 15.9358 25.2219 15.9375 25.3765V26.8096H15.2436ZM17 25.7594H19.6562C19.7702 25.7595 19.8811 25.7958 19.9725 25.8629C20.064 25.9301 20.1312 26.0245 20.1642 26.1323C20.1972 26.2401 20.1943 26.3555 20.1559 26.4615C20.1175 26.5675 20.0456 26.6585 19.9509 26.7211C19.8174 26.7789 19.6732 26.8091 19.5274 26.8096H17V25.7594ZM21.1226 25.6675C21.017 25.4232 20.8507 25.2092 20.6391 25.0452C20.4275 24.8813 20.1776 24.7727 19.9123 24.7296L22.1124 19.4943C22.3079 19.029 22.3843 18.5232 22.3347 18.0218C22.285 17.5204 22.111 17.0388 21.828 16.6198C21.545 16.2007 21.1618 15.8572 20.7123 15.6196C20.2628 15.382 19.7609 15.2577 19.2512 15.2577H17V14.4251L17.1556 14.5789C17.2049 14.6276 17.2635 14.6663 17.3279 14.6927C17.3924 14.7191 17.4615 14.7327 17.5312 14.7327H22.9351C22.85 14.9702 22.8238 15.2245 22.8588 15.4742C22.8938 15.7238 22.9888 15.9615 23.1361 16.1673C23.2833 16.3731 23.4783 16.541 23.7048 16.6568C23.9312 16.7727 24.1825 16.8331 24.4375 16.833H24.439C24.0927 17.2868 23.9056 17.8398 23.9062 18.4082V22.4816C23.9054 22.7599 23.7936 23.0267 23.595 23.2241L21.1226 25.6675ZM24.4375 15.7828C24.3324 15.7828 24.2297 15.752 24.1424 15.6943C24.055 15.6366 23.9869 15.5546 23.9467 15.4587C23.9065 15.3627 23.896 15.2572 23.9165 15.1553C23.937 15.0534 23.9876 14.9599 24.0618 14.8865C24.1361 14.813 24.2308 14.763 24.3339 14.7427C24.4369 14.7225 24.5437 14.7329 24.6408 14.7726C24.7379 14.8124 24.8208 14.8797 24.8792 14.966C24.9376 15.0524 24.9688 15.1539 24.9688 15.2577C24.9686 15.397 24.9126 15.5304 24.813 15.6289C24.7134 15.7273 24.5783 15.7827 24.4375 15.7828V15.7828ZM28.1562 13.1574V15.7828H27.0938V13.3209C27.2958 13.214 27.5213 13.1578 27.7505 13.1574H28.1562ZM26.0312 15.2577C26.0313 15.0057 25.9702 14.7573 25.853 14.5335C25.7358 14.3097 25.566 14.1169 25.3578 13.9714C25.1496 13.8259 24.9091 13.7319 24.6565 13.6974C24.4039 13.6628 24.1466 13.6887 23.9062 13.7728V12.8358L26.0312 13.5359V15.2577ZM18.5938 12.6323H22.8438V13.6825H17.7513L14.7194 10.6858L13.9681 11.4284L15.9375 13.3749V15.2577H12.75V8.95675H15.1619L18.1904 12.449C18.2403 12.5065 18.3021 12.5527 18.3718 12.5843C18.4414 12.616 18.5171 12.6323 18.5938 12.6323V12.6323ZM12.5158 2.82168C13.0014 2.29128 13.6459 2.13067 14.3438 2.13067C14.8147 2.13126 15.2722 2.28621 15.6446 2.57126C16.0169 2.8563 16.2832 3.25535 16.4015 3.70592H14.3438C14.2029 3.70592 14.0677 3.76124 13.9681 3.85971C13.8685 3.95818 13.8125 4.09174 13.8125 4.231V5.47807C13.8117 5.69645 13.7262 5.90621 13.5737 6.06417C13.4211 6.22214 13.2131 6.31628 12.9925 6.32721C12.7718 6.33815 12.5553 6.26504 12.3875 6.12295C12.2197 5.98086 12.1135 5.7806 12.0906 5.5634L11.9769 4.44025C11.9458 4.14813 11.9777 3.85281 12.0706 3.5738C12.1635 3.29479 12.3152 3.03844 12.5158 2.82168V2.82168ZM12.9492 7.3815C13.4598 7.38098 13.9493 7.18027 14.3104 6.82342C14.6714 6.46657 14.8745 5.98273 14.875 5.47807V4.75608H15.9375C15.9375 4.85976 15.9685 4.96113 16.0267 5.04737L16.7554 6.12786L16.2308 6.38699C16.1427 6.43063 16.0686 6.49765 16.0168 6.58056C15.9649 6.66346 15.9375 6.75898 15.9375 6.85642V7.3815C15.9373 7.52071 15.8813 7.65418 15.7817 7.75262C15.6821 7.85105 15.5471 7.90642 15.4062 7.90658H12.75V7.37119C12.8162 7.37797 12.8827 7.38141 12.9492 7.3815ZM12.75 16.833V16.3079H19.2512C19.5861 16.3079 19.9159 16.3896 20.2112 16.5457C20.5065 16.7019 20.7584 16.9276 20.9443 17.203C21.1302 17.4783 21.2446 17.7948 21.2771 18.1242C21.3097 18.4537 21.2595 18.786 21.1311 19.0918L18.7704 24.7092H17.2423L19.6209 18.5967C19.6518 18.5172 19.6627 18.4314 19.6526 18.3468C19.6425 18.2621 19.6117 18.1812 19.5629 18.111C19.5141 18.0407 19.4487 17.9833 19.3724 17.9436C19.2961 17.9039 19.2112 17.8832 19.125 17.8832H13.8125C13.5308 17.8828 13.2608 17.7721 13.0616 17.5752C12.8624 17.3783 12.7503 17.1114 12.75 16.833ZM11.1562 18.9333H15.4062C15.5471 18.9333 15.6823 18.9886 15.7819 19.0871C15.8815 19.1856 15.9375 19.3191 15.9375 19.4584C15.9375 19.5977 15.8815 19.7312 15.7819 19.8297C15.6823 19.9282 15.5471 19.9835 15.4062 19.9835H11.1562C11.0154 19.9835 10.8802 19.9282 10.7806 19.8297C10.681 19.7312 10.625 19.5977 10.625 19.4584C10.625 19.3191 10.681 19.1856 10.7806 19.0871C10.8802 18.9886 11.0154 18.9333 11.1562 18.9333ZM2.125 11.5822V11.0571C2.12516 10.9179 2.18118 10.7844 2.28077 10.686C2.38037 10.5875 2.5154 10.5322 2.65625 10.532H9.03125C9.1721 10.5322 9.30713 10.5875 9.40673 10.686C9.50632 10.7844 9.56234 10.9179 9.5625 11.0571V11.5822H2.125ZM2.125 18.9333H9.5625V19.9835H7.48538L2.125 19.0202V18.9333ZM3.84426 23.6591C3.61366 23.8441 3.39435 24.0425 3.1875 24.2532V23.6591H3.84426ZM7.96875 31.5353C7.40983 31.5328 6.86124 31.3862 6.37723 31.1099C5.89322 30.8337 5.49055 30.4373 5.20904 29.9601H6.56452C6.9522 30.2984 7.45157 30.4851 7.96875 30.4851C8.48593 30.4851 8.9853 30.2984 9.37298 29.9601H10.7285C10.447 30.4373 10.0443 30.8337 9.56027 31.1099C9.07626 31.3862 8.52767 31.5328 7.96875 31.5353V31.5353ZM22.0203 28.3947C21.8708 28.5569 21.6887 28.6865 21.4856 28.7752C21.2825 28.8639 21.063 28.9098 20.8409 28.9099H2.14698C2.26123 27.539 2.81959 26.2411 3.7392 25.2087C4.6588 24.1764 5.89066 23.4645 7.25196 23.1789C7.38929 23.1494 7.52939 23.1343 7.66992 23.134H11.1562V22.0838H7.96875V21.0337H15.8246C15.7346 21.2333 15.5948 21.4072 15.4182 21.5389C15.2417 21.6705 15.0342 21.7558 14.8152 21.7866C14.0946 21.8891 13.4353 22.2444 12.9579 22.7877C12.4438 23.3728 12.2188 24.1047 12.2188 24.87C12.2183 25.5815 12.4757 26.2696 12.9444 26.8096H8.5V27.8597H19.5274C20.0902 27.8556 20.6292 27.635 21.03 27.2445L24.3463 23.9667C24.7435 23.5719 24.9671 23.0383 24.9688 22.4816V18.4082C24.9691 18.0826 25.0715 17.765 25.2617 17.4991C25.4519 17.2331 25.7207 17.0319 26.0312 16.923V18.9333C26.0322 19.6776 26.2993 20.3976 26.7854 20.9661C27.2714 21.5346 27.9452 21.915 28.6875 22.04V23.134C28.3577 23.134 28.0202 23.1143 27.6923 23.1566C26.6985 23.254 25.7603 23.656 25.0089 24.3062C24.2576 24.9565 23.7306 25.8225 23.5016 26.7833L22.0203 28.3947ZM28.4405 27.3346H28.4675L29.1087 27.9685C29.2202 28.0791 29.2829 28.2287 29.2832 28.3848C29.2832 28.5013 29.2482 28.6151 29.1828 28.7119C29.1173 28.8087 29.0243 28.8842 28.9155 28.9288C28.8066 28.9733 28.6868 28.985 28.5713 28.9623C28.4557 28.9396 28.3496 28.8835 28.2663 28.8011L27.7773 28.3179L28.4405 27.3346ZM28.6875 31.5353C28.2272 31.5339 27.7726 31.4344 27.3546 31.2438C26.9366 31.0532 26.5651 30.7758 26.2653 30.4305C26.3494 30.39 26.4212 30.3282 26.4733 30.2513L26.9338 29.5687C27.1896 29.9395 27.5589 30.2195 27.9875 30.3677C28.4161 30.5158 28.8815 30.5243 29.3153 30.3919C29.7492 30.2595 30.1287 29.9931 30.3981 29.6319C30.6676 29.2707 30.8128 28.8336 30.8125 28.3848C30.8133 28.0737 30.7432 27.7663 30.6074 27.4856C30.5826 27.4339 30.5553 27.3839 30.5266 27.3346H31.6934C31.863 27.8099 31.9148 28.3184 31.8446 28.8175C31.7743 29.3167 31.584 29.7919 31.2896 30.2033C30.9952 30.6148 30.6052 30.9504 30.1525 31.1822C29.6997 31.414 29.1974 31.535 28.6875 31.5353V31.5353Z" fill="black"/>
<path d="M4.25 13.6819H3.1875V16.8324H4.25V13.6819Z" fill="black"/>
</svg>

<svg width="34" height="34" fill="none" xmlns="http://www.w3.org/2000/svg"><path d="M6.518 24.499l.407.97c.288-.118.587-.205.893-.26l-.19-1.034a5.49 5.49 0 00-1.11.324zm-2.791 2.606l.956.458a4.322 4.322 0 011.46-1.676l-.6-.867a5.378 5.378 0 00-1.816 2.085z" fill="#000"/><path d="M32.938 26.81c0-.905-.337-1.777-.948-2.45l-.791.7c.314.346.529.769.623 1.225h-3.666a.536.536 0 00-.442.233l-1.967 2.917h-1.31V27.86a3.658 3.658 0 011.09-2.598 3.746 3.746 0 012.63-1.078h1.062c.522 0 1.033.151 1.468.437l.588-.874a3.723 3.723 0 00-1.525-.575v-1.613a.522.522 0 00-.156-.372.535.535 0 00-.375-.153 2.14 2.14 0 01-1.502-.616 2.09 2.09 0 01-.623-1.485v-2.1h1.593a.534.534 0 00.376-.154.522.522 0 00.156-.371v-3.676a.522.522 0 00-.156-.371.535.535 0 00-.375-.154h-.938c-.221 0-.442.03-.656.09v-.615a.521.521 0 00-.117-.328L25.24 9.106a1.82 1.82 0 00-.43-2.365 1.873 1.873 0 00-2.43.077 1.822 1.822 0 00-.274 2.388 1.86 1.86 0 001.06.74c.432.113.89.068 1.291-.126l1.575 1.946v.663l-2.335-.77a1.448 1.448 0 00-.476-.077h-4.382l-2.522-2.908A1.559 1.559 0 0017 7.382V7.18l.769-.38a.53.53 0 00.276-.335.518.518 0 00-.072-.426l-.872-1.294a.532.532 0 00.309-.18.52.52 0 00.121-.335c0-.835-.337-1.636-.934-2.227a3.21 3.21 0 00-2.253-.923c-1 0-1.927.284-2.616 1.036a3.123 3.123 0 00-.808 2.427l.113 1.124c.048.484.282.931.655 1.25v9.915c0 .369.098.731.285 1.05h-.817c-.18 0-.36.03-.531.09v-6.916c0-.418-.168-.818-.467-1.113a1.605 1.605 0 00-1.127-.462H2.656a1.6 1.6 0 00-1.126.462 1.568 1.568 0 00-.468 1.113v2.625h1.063v-1.05h7.438v5.251H2.125v-3.15H1.062v4.287c0 .246.088.484.247.673.16.189.381.316.626.36l4.971.894v1.232a7.59 7.59 0 00-1.314.43H2.656a.534.534 0 00-.375.154.522.522 0 00-.156.371v2.492a7.393 7.393 0 00-1.063 3.809c0 .14.056.273.156.371.1.099.235.154.376.154h2.435a4.21 4.21 0 001.564 1.908 4.285 4.285 0 004.752 0 4.21 4.21 0 001.564-1.908h8.932a2.687 2.687 0 001.966-.86l.568-.617v1.477a.531.531 0 00.531.525h1.101c.468.8 1.19 1.427 2.054 1.78a4.296 4.296 0 002.727.177 4.252 4.252 0 002.271-1.5 4.17 4.17 0 00.705-3.745.524.524 0 00.173-.387zM22.843 8.17a.782.782 0 01.492-.729.806.806 0 01.868.171.786.786 0 01.173.859.803.803 0 01-1.3.255.784.784 0 01-.233-.557zm-7.6 18.64a1.977 1.977 0 01-1.387-.57 1.93 1.93 0 01-.576-1.37c0-.515.132-.998.48-1.394.31-.353.737-.584 1.205-.65a2.377 2.377 0 001.454-.784c.374-.425.58-.97.58-1.533a.518.518 0 00-.156-.372 1.559 1.559 0 00.065-1.204h1.443l-2.332 5.991a1.208 1.208 0 00-.082.453v1.433h-.694zM17 25.76h2.656a.535.535 0 01.508.372.52.52 0 01-.213.59 1.076 1.076 0 01-.424.088H17v-1.05zm4.123-.093a1.582 1.582 0 00-.484-.622 1.608 1.608 0 00-.727-.315l2.2-5.236a3.03 3.03 0 00-.284-2.874 3.085 3.085 0 00-1.116-1 3.127 3.127 0 00-1.46-.362H17v-.833l.156.154a.533.533 0 00.375.154h5.404a1.557 1.557 0 00.201 1.434 1.607 1.607 0 001.301.666h.002a2.591 2.591 0 00-.533 1.575v4.074c0 .278-.112.545-.311.742l-2.472 2.444zm3.314-9.884a.535.535 0 01-.49-.324.52.52 0 01.115-.572.533.533 0 01.907.37c0 .14-.056.273-.156.372a.535.535 0 01-.375.154zm3.72-2.626v2.626h-1.063V13.32a1.41 1.41 0 01.656-.164h.406zm-2.126 2.1a1.56 1.56 0 00-.673-1.286 1.603 1.603 0 00-1.452-.198v-.937l2.125.7v1.722zm-7.437-2.625h4.25v1.05H17.75l-3.032-2.996-.75.742 1.969 1.947v1.883H12.75V8.957h2.412l3.028 3.492a.53.53 0 00.404.183zm-6.078-9.81c.485-.53 1.13-.691 1.828-.691.47 0 .928.155 1.3.44.373.285.64.684.757 1.135h-2.057a.534.534 0 00-.376.154.522.522 0 00-.155.371v1.247a.848.848 0 01-.24.586.868.868 0 01-1.482-.5l-.114-1.124a2.054 2.054 0 01.539-1.618zm.433 4.56c.51-.001 1-.202 1.361-.559.361-.356.564-.84.565-1.345v-.722h1.063a.52.52 0 00.089.291l.728 1.08-.524.26a.53.53 0 00-.294.47v.524c0 .14-.056.273-.155.372a.535.535 0 01-.376.154H12.75V7.37a1.9 1.9 0 00.2.01zm-.199 9.451v-.525h6.501c.335 0 .665.082.96.238.296.156.547.382.733.657a1.997 1.997 0 01.187 1.889l-2.36 5.617h-1.529l2.379-6.112a.52.52 0 00-.249-.653.536.536 0 00-.247-.06h-5.313a1.07 1.07 0 01-.75-.309 1.045 1.045 0 01-.312-.742zm-1.594 2.1h4.25c.141 0 .276.056.376.154a.522.522 0 01-.376.896h-4.25a.534.534 0 01-.375-.153.522.522 0 01.375-.897zm-9.031-7.35v-.526c0-.14.056-.273.156-.371a.535.535 0 01.375-.154h6.375c.141 0 .276.056.376.154.1.098.155.232.155.371v.525H2.125zm0 7.35h7.438v1.05H7.485l-5.36-.963v-.087zm1.72 4.726c-.231.185-.45.384-.658.594v-.594h.657zm4.124 7.876a3.24 3.24 0 01-1.592-.425 3.193 3.193 0 01-1.168-1.15h1.356a2.136 2.136 0 002.808 0h1.356a3.192 3.192 0 01-1.169 1.15 3.24 3.24 0 01-1.591.425zm14.051-3.14a1.595 1.595 0 01-1.18.515H2.148a6.358 6.358 0 011.592-3.701 6.487 6.487 0 013.513-2.03 2.01 2.01 0 01.418-.045h3.486v-1.05H7.97v-1.05h7.856a1.315 1.315 0 01-1.01.753 3.04 3.04 0 00-1.857 1c-.514.586-.74 1.318-.74 2.083 0 .711.258 1.4.726 1.94H8.5v1.05h11.027a2.176 2.176 0 001.503-.616l3.316-3.277c.398-.395.621-.929.623-1.485v-4.074c0-.325.102-.643.293-.909.19-.266.459-.467.77-.576v2.01c0 .745.267 1.465.753 2.033a3.2 3.2 0 001.902 1.074v1.094c-.33 0-.667-.02-.995.023a4.82 4.82 0 00-2.683 1.15 4.727 4.727 0 00-1.507 2.476l-1.482 1.612zm6.42-1.06h.027l.642.633a.588.588 0 01.074.744.595.595 0 01-.612.25.597.597 0 01-.305-.16l-.489-.484.663-.983zm.247 4.2a3.22 3.22 0 01-1.332-.291 3.2 3.2 0 01-1.09-.814.528.528 0 00.208-.179l.46-.682a2.137 2.137 0 002.382.823 2.123 2.123 0 001.083-.76 2.083 2.083 0 00.129-2.297h1.166a3.119 3.119 0 01-.403 2.868 3.179 3.179 0 01-1.137.98 3.22 3.22 0 01-1.465.352z" fill="#000"/><path d="M4.25 13.682H3.187v3.15H4.25v-3.15z" fill="#000"/></svg>
